X: 2
T: Scatter The Mud
R: jig
M: 6/8
L: 1/8
K: Ador
Bd|eAA BAG|EAA ABd|eAA BAB|dBG GBd|eAA BAG|EAA AGE|GAB d2e|1dBA A:|2dBA A3|:aba g2e|dBG AGE|aba g2e|dBd g3|aba g2e|dBG AGE|GAB d2e|dBA A3:|


Tune 728	Setting 29545

